<?xml version="1.0" encoding="UTF-8"?>
<map version="1.10" tiledversion="1.11.2" orientation="orthogonal" renderorder="right-down" width="11" height="22" tilewidth="48" tileheight="48" infinite="0" nextlayerid="26" nextobjectid="1">
 <tileset firstgid="1" source="A2_Floors_MV_TILESET_2.tsx"/>
 <tileset firstgid="193" source="atlas_48x.tsx"/>
 <tileset firstgid="705" source="character_1-8.tsx"/>
 <layer id="21" name="图块层 1" width="11" height="22">
  <data encoding="csv">
5,5,5,5,5,5,5,5,5,5,6,
21,241,242,243,244,9,241,242,243,244,22,
5,273,274,275,276,25,273,274,275,276,38,
21,305,306,307,308,41,305,306,307,308,38,
37,337,338,339,340,41,337,338,339,340,37,
5,5,5,5,5,9,6,6,6,6,38,
21,9,9,9,9,9,9,9,9,9,38,
37,37,37,37,9,41,21,21,5,6,38,
5,5,5,5,9,10,5,6,5,5,5,
5,21,21,21,25,26,6,6,6,6,6,
21,37,5,6,41,42,22,22,22,22,22,
5,5,5,5,9,10,6,38,38,38,38,
21,21,21,21,25,26,5,5,6,38,38,
37,5,5,5,41,42,5,5,5,5,5,
5,21,21,21,5,5,5,5,5,5,5,
5,5,5,5,21,21,21,21,21,21,21,
21,21,21,21,37,37,37,37,5,6,6,
5,5,5,5,5,5,5,5,5,5,5,
5,5,5,5,21,21,21,5,5,5,5,
5,6,6,6,6,6,6,6,6,6,6,
21,22,22,22,22,22,22,22,22,22,22,
37,38,38,38,38,38,38,38,38,38,38
</data>
 </layer>
 <layer id="24" name="图块层 2" width="11" height="22">
  <data encoding="csv">
0,0,0,0,0,0,0,0,0,0,0,
0,0,0,0,0,0,0,0,0,0,0,
0,0,0,0,0,0,0,0,0,0,0,
0,0,0,0,0,0,0,0,0,0,0,
0,0,0,0,0,0,0,0,0,0,0,
0,0,0,0,0,0,0,0,0,0,0,
0,0,0,0,0,0,0,0,0,0,0,
0,0,0,0,0,0,0,0,0,0,0,
0,230,231,232,0,0,0,294,295,296,0,
0,262,263,264,0,0,0,326,327,328,0,
0,257,258,259,0,0,0,257,258,259,0,
0,289,290,291,0,0,0,289,290,291,0,
0,0,0,0,0,0,0,0,0,0,0,
0,0,0,0,0,0,0,0,0,0,0,
0,422,423,424,0,0,0,358,359,360,0,
0,454,455,456,0,0,0,390,391,392,0,
0,257,258,259,0,0,0,257,258,259,0,
0,289,290,291,0,0,0,289,290,291,0,
0,0,0,0,0,0,0,0,0,0,0,
0,0,0,0,0,0,0,0,0,0,0,
0,0,0,0,0,0,0,0,0,0,0,
0,0,0,0,0,0,0,0,0,0,0
</data>
 </layer>
 <layer id="25" name="图块层 3" width="11" height="22">
  <data encoding="csv">
0,0,0,0,0,0,0,0,0,0,0,
0,0,0,0,0,0,0,0,0,0,0,
0,0,0,0,0,0,0,0,0,0,0,
0,0,335,0,0,0,0,0,0,0,0,
0,489,0,489,0,0,489,0,489,0,0,
0,521,0,521,0,0,521,0,521,0,0,
0,0,0,0,0,0,0,0,0,0,0,
0,0,0,0,0,0,489,0,0,0,0,
0,0,0,0,0,0,521,0,0,0,0,
0,0,0,0,0,0,490,0,0,0,0,
0,0,0,0,0,0,522,0,0,0,0,
0,0,0,0,0,0,0,0,0,0,0,
0,9,10,10,10,10,10,10,10,10,10,
0,0,0,0,0,0,489,0,0,0,0,
0,0,0,0,9,10,521,0,0,0,0,
0,0,0,0,25,26,489,0,0,0,0,
0,0,0,0,41,42,521,0,0,0,0,
0,0,0,0,9,10,489,0,0,0,0,
0,0,0,0,25,26,521,0,0,0,0,
9,10,10,10,9,10,0,0,0,0,0,
0,0,0,0,25,26,0,0,0,0,0,
0,0,0,0,41,42,0,0,0,0,0
</data>
 </layer>
</map>
