<?xml version="1.0" encoding="UTF-8"?>
<map version="1.10" tiledversion="1.11.2" orientation="orthogonal" renderorder="right-down" width="11" height="22" tilewidth="48" tileheight="48" infinite="0" nextlayerid="2" nextobjectid="1">
 <tileset firstgid="1" source="Modern_UI_Style_1_48x48.tsx"/>
 <layer id="1" name="图块层 1" width="11" height="22">
  <data encoding="csv">
0,0,0,0,0,0,0,0,0,0,0,
0,0,0,0,0,0,0,0,0,0,0,
0,0,0,0,0,0,0,0,0,0,0,
0,0,1,2,2,2,2,2,2,3,0,
0,0,62,63,63,63,63,63,63,64,0,
0,0,62,63,63,63,63,63,63,64,0,
0,0,62,63,63,63,63,63,63,64,0,
0,0,62,63,63,63,63,63,63,64,0,
0,0,62,63,63,63,63,63,63,64,0,
0,0,62,63,63,63,63,63,63,64,0,
0,0,62,63,63,63,63,63,63,64,0,
0,0,62,63,63,63,63,63,63,64,0,
0,0,123,124,124,124,124,124,124,125,0,
0,0,0,0,0,0,0,0,0,0,0,
0,0,0,0,0,0,0,0,0,0,0,
0,0,0,0,0,0,0,0,0,0,0,
0,0,0,0,0,0,0,0,0,0,0,
0,0,0,0,0,0,0,0,0,0,0,
0,0,0,0,0,0,0,0,0,0,0,
0,0,0,0,0,0,0,0,0,0,0,
0,0,0,0,0,0,0,0,0,0,0,
0,0,0,0,0,0,0,0,0,0,0
</data>
 </layer>
</map>
