<?xml version="1.0" encoding="UTF-8"?>
<map version="1.10" tiledversion="1.11.2" orientation="orthogonal" renderorder="right-down" width="20" height="40" tilewidth="48" tileheight="48" infinite="0" nextlayerid="7" nextobjectid="1">
 <tileset firstgid="1" source="Maps/Modern_Office_Shadowless_48x48.tsx"/>
 <tileset firstgid="849" source="Maps/Godot_Autotiles_48x48.tsx"/>
 <tileset firstgid="2097" source="Maps/Modern_Office_MV_1_TILESETS_B-C-D-E.tsx"/>
 <tileset firstgid="2353" source="Maps/Modern_Office_MV_2_TILESETS_B-C-D-E.tsx"/>
 <tileset firstgid="2609" source="Maps/Modern_Office_MV_3_TILESETS_B-C-D-E.tsx"/>
 <layer id="1" name="地面" width="20" height="40">
  <data encoding="csv">
2243,2243,2243,2243,2243,2243,2243,2243,2243,2243,2243,2243,2243,2243,2243,2243,2243,2243,2243,2243,
2243,2243,2243,2243,2243,2243,2243,2243,2243,2243,2243,2243,2243,2243,2243,2243,2243,2243,2243,2243,
2243,2243,2243,2243,2243,2243,2243,2243,2243,2243,2243,2243,2243,2243,2243,2243,2243,2243,2243,2243,
2243,2243,2243,2243,2243,2243,2243,2243,2243,2243,2243,2243,2243,2243,2243,2243,2243,2243,2243,2243,
2243,2243,2243,2243,2243,2243,2243,2243,2243,2243,2243,2243,2243,2243,2243,2243,2243,2243,2243,2243,
2243,2243,2243,2243,2243,2243,2243,2243,2243,2243,2243,2243,2243,2243,2243,2243,2243,2243,2243,2243,
2243,2243,2243,2243,2243,2243,2243,2243,2243,2243,2243,2243,2243,2243,2243,2243,2243,2243,2243,2243,
2243,2243,2243,2243,2243,2243,2243,2243,2243,2243,2243,2243,2243,2243,2243,2243,2243,2243,2243,2243,
2243,2243,2243,2243,2243,2243,2243,2243,2243,2243,2243,2243,2243,2243,2243,2243,2243,2243,2243,2243,
2243,2243,2243,2243,2243,2243,2243,2243,2243,2243,2243,2243,2243,2243,2243,2243,2243,2243,2243,2243,
2243,2243,2243,2243,2243,2243,2243,2243,2243,2243,2243,2243,2243,2243,2243,2243,2243,2243,2243,2243,
2243,2243,2243,2243,2243,2243,2243,2243,2243,2243,2243,2243,2243,2243,2243,2243,2243,2243,2243,2243,
2243,2243,2243,2243,2243,2243,2243,2243,2243,2243,2243,2243,2243,2243,2243,2243,2243,2243,2243,2243,
2243,2243,2243,2243,2243,2243,2243,2243,2243,2243,2243,2243,2243,2243,2243,2243,2243,2243,2243,2243,
2243,2243,2243,2243,2243,2243,2243,2243,2243,2243,2243,2243,2243,2243,2243,2243,2243,2243,2243,2243,
2243,2243,2243,2243,2243,2243,2243,2243,2243,2243,2243,2243,2243,2243,2243,2243,2243,2243,2243,2243,
2243,2243,2243,2243,2243,2243,2243,2243,2243,2243,2243,2243,2243,2243,2243,2243,2243,2243,2243,2243,
2243,2243,2243,2243,2243,2243,2243,2243,2243,2243,2243,2243,2243,2243,2243,2243,2243,2243,2243,2243,
2243,2243,2243,2243,2243,2243,2243,2243,2243,2243,2243,2243,2243,2243,2243,2243,2243,2243,2243,2243,
2243,2243,2243,2243,2243,2243,2243,2243,2243,2243,2243,2243,2243,2243,2243,2243,2243,2243,2243,2243,
2243,2243,2243,2243,2243,2243,2243,2243,2243,2243,2243,2243,2243,2243,2243,2243,2243,2243,2243,2243,
2243,2243,2243,2243,2243,2243,2243,2243,2243,2243,2243,2243,2243,2243,2243,2243,2243,2243,2243,2243,
2243,2243,2243,2243,2243,2243,2243,2243,2243,2243,2243,2243,2243,2243,2243,2243,2243,2243,2243,2243,
2243,2243,2243,2243,2243,2243,2243,2243,2243,2243,2243,2243,2243,2243,2243,2243,2243,2243,2243,2243,
2243,2243,2243,2243,2243,2243,2243,2243,2243,2243,2243,2243,2243,2243,2243,2243,2243,2243,2243,2243,
2243,2243,2243,2243,2243,2243,2243,2243,2243,2243,2243,2243,2243,2243,2243,2243,2243,2243,2243,2243,
2243,2243,2243,2243,2243,2243,2243,2243,2243,2243,2243,2243,2243,2243,2243,2243,2243,2243,2243,2243,
2243,2243,2243,2243,2243,2243,2243,2243,2243,2243,2243,2243,2243,2243,2243,2243,2243,2243,2243,2243,
2243,2243,2243,2243,2243,2243,2243,2243,2243,2243,2243,2243,2243,2243,2243,2243,2243,2243,2243,2243,
2243,2243,2243,2243,2243,2243,2243,2243,2243,2243,2243,2243,2243,2243,2243,2243,2243,2243,2243,2243,
2243,2243,2243,2243,2243,2243,2243,2243,2243,2243,2243,2243,2243,2243,2243,2243,2243,2243,2243,2243,
2243,2243,2243,2243,2243,2243,2243,2243,2243,2243,2243,2243,2243,2243,2243,2243,2243,2243,2243,2243,
2243,2243,2243,2243,2243,2243,2243,2243,2243,2243,2243,2243,2243,2243,2243,2243,2243,2243,2243,2243,
2243,2243,2243,2243,2243,2243,2243,2243,2243,2243,2243,2243,2243,2243,2243,2243,2243,2243,2243,2243,
2243,2243,2243,2243,2243,2243,2243,2243,2243,2243,2243,2243,2243,2243,2243,2243,2243,2243,2243,2243,
2243,2243,2243,2243,2243,2243,2243,2243,2243,2243,2243,2243,2243,2243,2243,2243,2243,2243,2243,2243,
2243,2243,2243,2243,2243,2243,2243,2243,2243,2243,2243,2243,2243,2243,2243,2243,2243,2243,2243,2243,
2243,2243,2243,2243,2243,2243,2243,2243,2243,2243,2243,2243,2243,2243,2243,2243,2243,2243,2243,2243,
2243,2243,2243,2243,2243,2243,2243,2243,2243,2243,2243,2243,2243,2243,2243,2243,2243,2243,2243,2243,
2243,2243,2243,2243,2243,2243,2243,2243,2243,2243,2243,2243,2243,2243,2243,2243,2243,2243,2243,2243
</data>
 </layer>
</map>
